X: 3
T: The Spey In Spate
C: James Scott Skinner
R: reel
M: 4/4
L: 1/8
K: Dmaj
(3A,B,C|:D2FD A,DFA|dcBA ^GAFD|E2GE B,EGB|gecA GECE|
D2FD A,DFA|dDcD Bdef|(3gfe fd ecdB|1 AFGE DA,B,C:|2 AFGE DFAc||
|:ddfd AdFA|DFAd fagf|eege cAED|CEAc egfe|
ddfd AdFA|DFAd fdef|(3gfe fd ecdB|1 AFGE DFAc:|2 AFGE D4|| 